storage/app/icons/phosphoricons/bold/escalator-down-bold.svg

<svg xmlns="http://www.w3.org/2000/svg" fill="currentColor" viewBox="0 0 256 256"><path d="M167.51 88.49a12 12 0 0 1 17-17L188 75V48a12 12 0 0 1 24 0v27l3.51-3.52a12 12 0 0 1 17 17l-24 24a12 12 0 0 1-17 0ZM244 160v40a20 20 0 0 1-20 20h-56a12 12 0 0 1-8.82-3.86L66.75 116H32a20 20 0 0 1-20-20V56a20 20 0 0 1 20-20h56a12 12 0 0 1 8.82 3.86L189.25 140H224a20 20 0 0 1 20 20m-24 4h-36a12 12 0 0 1-8.82-3.86L82.75 60H36v32h36a12 12 0 0 1 8.82 3.86L173.25 196H220Z"/></svg>

<svg xmlns="http://www.w3.org/2000/svg" viewBox="0 0 256 256" fill="currentColor"><path d="M167.51,88.49a12,12,0,0,1,17-17L188,75V48a12,12,0,0,1,24,0V75l3.51-3.52a12,12,0,0,1,17,17l-24,24a12,12,0,0,1-17,0ZM244,160v40a20,20,0,0,1-20,20H168a12,12,0,0,1-8.82-3.86L66.75,116H32A20,20,0,0,1,12,96V56A20,20,0,0,1,32,36H88a12,12,0,0,1,8.82,3.86L189.25,140H224A20,20,0,0,1,244,160Zm-24,4H184a12,12,0,0,1-8.82-3.86L82.75,60H36V92H72a12,12,0,0,1,8.82,3.86L173.25,196H220Z"/></svg>
